X:36
T:Leslie's
Z: id:dc-hornpipe-68
M:C|
L:1/8
K:D Major
A|d2d2 d2cd|e2e2 e2fe|dcBA B2c2|defg agfe|!
d2d2 d2cd|e2e2 e2fe|dcBA B2c2|d4 d3:|!
e|f2f2 f2ef|g2g2 g2fg|e2e2 e2de|f2f2 fgaf|!
d2d2 d2cd|e2e2 e2fe|dcBA B2c2|d4 d3:|!

